X:1
T:D Major Oliver Holden, 1800
T:Isaac Watts, 1719 (Psalm 26)   88. 88. (L. M.)
T:Ur No copyright. Transcribed from Plain Psalmody, 1800.
%%score [ 1 2 3 ]
L:1/8
M:4/4
K:D
V:1 treble nm="Treble" snm="Tr."
V:2 treble-8 nm="Tenor" snm="T."
V:3 bass nm="Bass" snm="B."
V:1
 d4 | A4 d4 | A3 A A2 G2 | F4 f4 | g2 f2 e2 d2 | e4 d4 | !fermata!c4 d4 | A4 d4 | d6 d2 | d4 d4 | %10
w: 1.~I|love Thy|ha- bi- ta- tion,|Lord, The|tem- ple where Thine|hon- ors|dwell; There|shall I|hear Thy|ho- ly|
w: ||||||||||
 c4 d4 | d2 d2 f3 e | (d2 g2) (f2 e2) | d8 | z8 | z8 | e4 e2 e2 | d2 d2 c2 B2 | A2 F2 B2 c2 | %19
w: word, And|where Thy works of|won- * der *|tell.|||1.~Let not my|soul be joined at|last With men of|
w: ||||||2.~A- mong Thy|saints will I ap-|pear With frauds well|
 d3 c B2 ^A2 | B8 | d4 d2 d2 | A2 F2 A2 d2 | d8 | f4 f2 d2 | A2 d2 d2 d2 | d6 B2 | A2 d2 d2 B2 | %28
w: trea- che- ry and|blood;||||||||
w: washed in in- no-|cence;||||||||
 (A2 G2) (F2 E2) | F8 |] %30
w: ||
w: ||
V:2
 D4 | (D2 F2) (F2 A2) | d3 d d2 c2 | d4 d4 | e2 d2 c2 d2 | c4 B4 | !fermata!A4 G4 | %7
w: 2.~Judge|me, * O *|Lord, and prove my|ways, And|try my reins, and|try my|heart; My|
w: |||||||
 (F2 D2) (F2 A2) | B6 A2 | (B2 A2) (G2 F2) | E4 (F2 D2) | F2 A2 d3 e | (f2 e2) (d2 c2) | d8 | z8 | %15
w: faith * up- *|on Thy|pro- * mise *|stays, Nor *|from Thy law my|feet * de- *|part.||
w: ||||||||
 d4 d2 d2 | B2 B2 c2 B2 | A4 z4 | A4 B2 ^A2 | B3 e d2 c2 | B8 | A4 A2 A2 | F2 D2 F2 A2 | B8 | %24
w: 1.~Let not my|soul be joined at|last|With men of|trea- che- ry and|blood,|Since I my|days on earth have|passed,|
w: 2.~A- mong Thy|saints will I ap-|pear|With frauds well|washed in in- no-|cence;|But when I|stand be- fore Thy|bar,|
 d4 d2 f2 | d2 A2 B2 d2 | A6 G2 | F2 B2 B2 d2 | (f2 e2) (d2 c2) | d8 |] %30
w: Since I my|days on earth have|passed, A-|mong Thy saints and|near * my *|God.|
w: But when I|stand be- fore Thy|bar, The|blood of Christ is|my * de- *|fense.|
V:3
 D,4 | D,4 D,4 | D,3 D, D,2 A,,2 | D,4 D,4 | A,2 D,2 E,2 F,2 | E,4 E,4 | !fermata!A,,4 D,4 | %7
w: |||||||
w: |||||||
 D,4 D,4 | G,6 F,2 | (G,2 F,2) (E,2 D,2) | A,,4 D,4 | D,2 D,2 D,3 G, | (F,2 G,2) A,4 | D,8 | %14
w: |||||||
w: |||||||
 A,4 A,2 A,2 | F,4 F,4 | E,4 A,4 | D,4 z4 | D,4 F,2 F,2 | B,3 ^A, B,2 F,2 | B,,8 | D,4 D,2 D,2 | %22
w: 1.~Let not my|soul be|joined at|last|||||
w: 2.~A- mong Thy|saints will|I ap-|pear|||||
 D,2 D,2 D,2 F,2 | G,8 | F,4 D,2 D,2 | D,2 D,2 G,2 G,2 | F,6 D,2 | D,2 D,2 D,2 G,2 | A,4 A,4 | %29
w: |||||||
w: |||||||
 D,8 |] %30
w: |
w: |

